X: 230
T: Kilmihil Lassies (reel)
N: 111273
C: BB 8/06
R: reel
Q: 1/8=370
M: 4/4
L: 1/8
K: G
A | "G"BGFG "D7"ABcA | "G"BG (3GFG "Em"EDB,D | "G"G2AB "Am"cAAe | "G"dg (3gfg "D"fdcA |
"G"BGFG "D7"ABcA | "G"BG (3GFG "Em"EDB,D | "G"G2AB "C"c2 eg | "D7"fdcA "G"G3 :|
z| "Am7"AcAG "D"FDDA | "D7"dcAd cAFG | "Am7"AcAG "D"FDDB, | "C"CEGB c3B|
"Am7"AcAG "D"FDDA | "D7"dcAc defa | "G"gfgd "C"cBcA | "D"FGAF "G"G3 :|
%%%%%%%%%%%%%%%%%%%%%
